images/3234001.svg

<?xml version="1.0" encoding="UTF-8"?>
<svg xmlns="http://www.w3.org/2000/svg" xmlns:xlink="http://www.w3.org/1999/xlink" width="300pt" height="300pt" viewBox="0 0 300 300" version="1.1">
<defs>
<g>
<symbol overflow="visible" id="glyph0-0">
<path style="stroke:none;" d="M 0.640625 2.296875 L 0.640625 -9.171875 L 7.140625 -9.171875 L 7.140625 2.296875 Z M 1.375 1.578125 L 6.421875 1.578125 L 6.421875 -8.4375 L 1.375 -8.4375 Z M 1.375 1.578125 "/>
</symbol>
<symbol overflow="visible" id="glyph0-1">
<path style="stroke:none;" d="M 1.28125 -9.484375 L 3 -9.484375 L 7.203125 -1.546875 L 7.203125 -9.484375 L 8.453125 -9.484375 L 8.453125 0 L 6.71875 0 L 2.515625 -7.921875 L 2.515625 0 L 1.28125 0 Z M 1.28125 -9.484375 "/>
</symbol>
</g>
</defs>
<g id="surface35937">
<rect x="0" y="0" width="300" height="300" style="fill:rgb(100%,100%,100%);fill-opacity:1;stroke:none;"/>
<path style="fill:none;stroke-width:1.2;stroke-linecap:butt;stroke-linejoin:miter;stroke:rgb(0%,0%,0%);stroke-opacity:1;stroke-miterlimit:10;" d="M 137.867188 233.105469 L 125.039062 222.078125 "/>
<path style="fill:none;stroke-width:1.2;stroke-linecap:butt;stroke-linejoin:miter;stroke:rgb(0%,0%,100%);stroke-opacity:1;stroke-miterlimit:10;" d="M 125.039062 222.078125 L 112.210938 211.054688 "/>
<path style="fill:none;stroke-width:1.2;stroke-linecap:butt;stroke-linejoin:miter;stroke:rgb(0%,0%,100%);stroke-opacity:1;stroke-miterlimit:10;" d="M 112.210938 211.054688 L 96.25 216.652344 "/>
<path style="fill:none;stroke-width:1.2;stroke-linecap:butt;stroke-linejoin:miter;stroke:rgb(0%,0%,0%);stroke-opacity:1;stroke-miterlimit:10;" d="M 96.25 216.652344 L 80.289062 222.246094 "/>
<path style="fill:none;stroke-width:1.2;stroke-linecap:butt;stroke-linejoin:miter;stroke:rgb(0%,0%,100%);stroke-opacity:1;stroke-miterlimit:10;" d="M 112.210938 211.054688 L 115.347656 194.433594 "/>
<path style="fill:none;stroke-width:1.2;stroke-linecap:butt;stroke-linejoin:miter;stroke:rgb(0%,0%,0%);stroke-opacity:1;stroke-miterlimit:10;" d="M 115.347656 194.433594 L 118.480469 177.8125 "/>
<path style=" stroke:none;fill-rule:nonzero;fill:rgb(100%,100%,100%);fill-opacity:1;" d="M 107.210938 203.054688 L 117.210938 203.054688 L 117.210938 219.054688 L 107.210938 219.054688 Z M 107.210938 203.054688 "/>
<g style="fill:rgb(0%,0%,100%);fill-opacity:1;">
  <use xlink:href="#glyph0-1" x="107.210938" y="215.430664"/>
</g>
<path style="fill:none;stroke-width:1.2;stroke-linecap:butt;stroke-linejoin:miter;stroke:rgb(0%,0%,0%);stroke-opacity:1;stroke-miterlimit:10;" d="M 118.480469 177.8125 L 92.828125 155.761719 "/>
<path style="fill:none;stroke-width:1.2;stroke-linecap:butt;stroke-linejoin:miter;stroke:rgb(0%,0%,0%);stroke-opacity:1;stroke-miterlimit:10;" d="M 92.828125 155.761719 L 60.902344 166.957031 "/>
<path style="fill:none;stroke-width:1.2;stroke-linecap:butt;stroke-linejoin:miter;stroke:rgb(0%,0%,0%);stroke-opacity:1;stroke-miterlimit:10;" d="M 87 149.371094 L 61.460938 158.324219 "/>
<path style="fill:none;stroke-width:1.2;stroke-linecap:butt;stroke-linejoin:miter;stroke:rgb(0%,0%,0%);stroke-opacity:1;stroke-miterlimit:10;" d="M 99.09375 122.523438 L 92.828125 155.761719 "/>
<path style="fill:none;stroke-width:1.2;stroke-linecap:butt;stroke-linejoin:miter;stroke:rgb(0%,0%,0%);stroke-opacity:1;stroke-miterlimit:10;" d="M 60.902344 166.957031 L 35.25 144.90625 "/>
<path style="fill:none;stroke-width:1.2;stroke-linecap:butt;stroke-linejoin:miter;stroke:rgb(0%,0%,0%);stroke-opacity:1;stroke-miterlimit:10;" d="M 35.25 144.90625 L 41.519531 111.664062 "/>
<path style="fill:none;stroke-width:1.2;stroke-linecap:butt;stroke-linejoin:miter;stroke:rgb(0%,0%,0%);stroke-opacity:1;stroke-miterlimit:10;" d="M 43.699219 143.058594 L 48.714844 116.464844 "/>
<path style="fill:none;stroke-width:1.2;stroke-linecap:butt;stroke-linejoin:miter;stroke:rgb(0%,0%,0%);stroke-opacity:1;stroke-miterlimit:10;" d="M 41.519531 111.664062 L 73.441406 100.472656 "/>
<path style="fill:none;stroke-width:1.2;stroke-linecap:butt;stroke-linejoin:miter;stroke:rgb(0%,0%,0%);stroke-opacity:1;stroke-miterlimit:10;" d="M 73.441406 100.472656 L 99.09375 122.523438 "/>
<path style="fill:none;stroke-width:1.2;stroke-linecap:butt;stroke-linejoin:miter;stroke:rgb(0%,0%,0%);stroke-opacity:1;stroke-miterlimit:10;" d="M 70.816406 108.714844 L 91.339844 126.351562 "/>
<path style="fill:none;stroke-width:1.2;stroke-linecap:butt;stroke-linejoin:miter;stroke:rgb(0%,0%,0%);stroke-opacity:1;stroke-miterlimit:10;" d="M 99.09375 122.523438 L 131.015625 111.328125 "/>
<path style="fill:none;stroke-width:1.2;stroke-linecap:butt;stroke-linejoin:miter;stroke:rgb(0%,0%,0%);stroke-opacity:1;stroke-miterlimit:10;" d="M 131.015625 111.328125 L 156.671875 133.378906 "/>
<path style="fill:none;stroke-width:1.2;stroke-linecap:butt;stroke-linejoin:miter;stroke:rgb(0%,0%,0%);stroke-opacity:1;stroke-miterlimit:10;" d="M 138.769531 107.5 L 159.292969 125.136719 "/>
<path style="fill:none;stroke-width:1.2;stroke-linecap:butt;stroke-linejoin:miter;stroke:rgb(0%,0%,100%);stroke-opacity:1;stroke-miterlimit:10;" d="M 137.285156 78.085938 L 134.152344 94.707031 "/>
<path style="fill:none;stroke-width:1.2;stroke-linecap:butt;stroke-linejoin:miter;stroke:rgb(0%,0%,0%);stroke-opacity:1;stroke-miterlimit:10;" d="M 134.152344 94.707031 L 131.015625 111.328125 "/>
<path style="fill:none;stroke-width:1.2;stroke-linecap:butt;stroke-linejoin:miter;stroke:rgb(0%,0%,0%);stroke-opacity:1;stroke-miterlimit:10;" d="M 156.671875 133.378906 L 188.59375 122.1875 "/>
<path style="fill:none;stroke-width:1.2;stroke-linecap:butt;stroke-linejoin:miter;stroke:rgb(0%,0%,0%);stroke-opacity:1;stroke-miterlimit:10;" d="M 188.59375 122.1875 L 191.726562 105.566406 "/>
<path style="fill:none;stroke-width:1.2;stroke-linecap:butt;stroke-linejoin:miter;stroke:rgb(0%,0%,100%);stroke-opacity:1;stroke-miterlimit:10;" d="M 191.726562 105.566406 L 194.863281 88.945312 "/>
<path style="fill:none;stroke-width:1.2;stroke-linecap:butt;stroke-linejoin:miter;stroke:rgb(0%,0%,0%);stroke-opacity:1;stroke-miterlimit:10;" d="M 181.398438 117.386719 L 183.90625 104.089844 "/>
<path style="fill:none;stroke-width:1.2;stroke-linecap:butt;stroke-linejoin:miter;stroke:rgb(0%,0%,100%);stroke-opacity:1;stroke-miterlimit:10;" d="M 183.90625 104.089844 L 186.414062 90.792969 "/>
<path style="fill:none;stroke-width:1.2;stroke-linecap:butt;stroke-linejoin:miter;stroke:rgb(0%,0%,0%);stroke-opacity:1;stroke-miterlimit:10;" d="M 188.59375 122.1875 L 201.421875 133.210938 "/>
<path style="fill:none;stroke-width:1.2;stroke-linecap:butt;stroke-linejoin:miter;stroke:rgb(0%,0%,100%);stroke-opacity:1;stroke-miterlimit:10;" d="M 201.421875 133.210938 L 214.246094 144.238281 "/>
<path style="fill:none;stroke-width:1.2;stroke-linecap:butt;stroke-linejoin:miter;stroke:rgb(0%,0%,100%);stroke-opacity:1;stroke-miterlimit:10;" d="M 194.863281 88.945312 L 182.035156 77.921875 "/>
<path style="fill:none;stroke-width:1.2;stroke-linecap:butt;stroke-linejoin:miter;stroke:rgb(0%,0%,0%);stroke-opacity:1;stroke-miterlimit:10;" d="M 182.035156 77.921875 L 169.207031 66.894531 "/>
<path style=" stroke:none;fill-rule:nonzero;fill:rgb(100%,100%,100%);fill-opacity:1;" d="M 189.863281 80.945312 L 199.863281 80.945312 L 199.863281 96.945312 L 189.863281 96.945312 Z M 189.863281 80.945312 "/>
<g style="fill:rgb(0%,0%,100%);fill-opacity:1;">
  <use xlink:href="#glyph0-1" x="189.863281" y="93.321289"/>
</g>
<path style="fill:none;stroke-width:1.2;stroke-linecap:butt;stroke-linejoin:miter;stroke:rgb(0%,0%,0%);stroke-opacity:1;stroke-miterlimit:10;" d="M 169.207031 66.894531 L 153.246094 72.492188 "/>
<path style="fill:none;stroke-width:1.2;stroke-linecap:butt;stroke-linejoin:miter;stroke:rgb(0%,0%,100%);stroke-opacity:1;stroke-miterlimit:10;" d="M 153.246094 72.492188 L 137.285156 78.085938 "/>
<path style="fill:none;stroke-width:1.2;stroke-linecap:butt;stroke-linejoin:miter;stroke:rgb(0%,0%,0%);stroke-opacity:1;stroke-miterlimit:10;" d="M 168.648438 75.527344 L 155.878906 80.003906 "/>
<path style="fill:none;stroke-width:1.2;stroke-linecap:butt;stroke-linejoin:miter;stroke:rgb(0%,0%,100%);stroke-opacity:1;stroke-miterlimit:10;" d="M 155.878906 80.003906 L 143.113281 84.480469 "/>
<path style=" stroke:none;fill-rule:nonzero;fill:rgb(100%,100%,100%);fill-opacity:1;" d="M 132.285156 70.085938 L 142.285156 70.085938 L 142.285156 86.085938 L 132.285156 86.085938 Z M 132.285156 70.085938 "/>
<g style="fill:rgb(0%,0%,100%);fill-opacity:1;">
  <use xlink:href="#glyph0-1" x="132.285156" y="82.461914"/>
</g>
<path style="fill:none;stroke-width:1.2;stroke-linecap:butt;stroke-linejoin:miter;stroke:rgb(0%,0%,100%);stroke-opacity:1;stroke-miterlimit:10;" d="M 214.246094 144.238281 L 230.707031 140.339844 "/>
<path style="fill:none;stroke-width:1.2;stroke-linecap:butt;stroke-linejoin:miter;stroke:rgb(0%,0%,0%);stroke-opacity:1;stroke-miterlimit:10;" d="M 230.707031 140.339844 L 247.164062 136.441406 "/>
<path style="fill:none;stroke-width:1.2;stroke-linecap:butt;stroke-linejoin:miter;stroke:rgb(0%,0%,0%);stroke-opacity:1;stroke-miterlimit:10;" d="M 211.488281 177.953125 L 212.867188 161.09375 "/>
<path style="fill:none;stroke-width:1.2;stroke-linecap:butt;stroke-linejoin:miter;stroke:rgb(0%,0%,100%);stroke-opacity:1;stroke-miterlimit:10;" d="M 212.867188 161.09375 L 214.246094 144.238281 "/>
<path style=" stroke:none;fill-rule:nonzero;fill:rgb(100%,100%,100%);fill-opacity:1;" d="M 209.246094 136.238281 L 219.246094 136.238281 L 219.246094 152.238281 L 209.246094 152.238281 Z M 209.246094 136.238281 "/>
<g style="fill:rgb(0%,0%,100%);fill-opacity:1;">
  <use xlink:href="#glyph0-1" x="209.246094" y="148.614258"/>
</g>
<path style="fill:none;stroke-width:1.2;stroke-linecap:butt;stroke-linejoin:miter;stroke:rgb(0%,0%,0%);stroke-opacity:1;stroke-miterlimit:10;" d="M 247.164062 136.441406 L 264.75 165.339844 "/>
<path style="fill:none;stroke-width:1.2;stroke-linecap:butt;stroke-linejoin:miter;stroke:rgb(0%,0%,0%);stroke-opacity:1;stroke-miterlimit:10;" d="M 242.125 143.46875 L 256.191406 166.589844 "/>
<path style="fill:none;stroke-width:1.2;stroke-linecap:butt;stroke-linejoin:miter;stroke:rgb(0%,0%,0%);stroke-opacity:1;stroke-miterlimit:10;" d="M 264.75 165.339844 L 253.726562 178.167969 "/>
<path style="fill:none;stroke-width:1.2;stroke-linecap:butt;stroke-linejoin:miter;stroke:rgb(0%,0%,100%);stroke-opacity:1;stroke-miterlimit:10;" d="M 253.726562 178.167969 L 242.699219 190.996094 "/>
<path style="fill:none;stroke-width:1.2;stroke-linecap:butt;stroke-linejoin:miter;stroke:rgb(0%,0%,100%);stroke-opacity:1;stroke-miterlimit:10;" d="M 242.699219 190.996094 L 227.09375 184.472656 "/>
<path style="fill:none;stroke-width:1.2;stroke-linecap:butt;stroke-linejoin:miter;stroke:rgb(0%,0%,0%);stroke-opacity:1;stroke-miterlimit:10;" d="M 227.09375 184.472656 L 211.488281 177.953125 "/>
<path style="fill:none;stroke-width:1.2;stroke-linecap:butt;stroke-linejoin:miter;stroke:rgb(0%,0%,100%);stroke-opacity:1;stroke-miterlimit:10;" d="M 242.648438 182.347656 L 230.164062 177.128906 "/>
<path style="fill:none;stroke-width:1.2;stroke-linecap:butt;stroke-linejoin:miter;stroke:rgb(0%,0%,0%);stroke-opacity:1;stroke-miterlimit:10;" d="M 230.164062 177.128906 L 217.679688 171.910156 "/>
<path style=" stroke:none;fill-rule:nonzero;fill:rgb(100%,100%,100%);fill-opacity:1;" d="M 237.699219 182.996094 L 247.699219 182.996094 L 247.699219 198.996094 L 237.699219 198.996094 Z M 237.699219 182.996094 "/>
<g style="fill:rgb(0%,0%,100%);fill-opacity:1;">
  <use xlink:href="#glyph0-1" x="237.699219" y="195.37207"/>
</g>
</g>
</svg>

<svg xmlns="http://www.w3.org/2000/svg" xmlns:xlink="http://www.w3.org/1999/xlink" width="300pt" height="300pt" viewBox="0 0 300 300"><defs><symbol overflow="visible"><path d="M.64 2.297v-11.47h6.5v11.47zm.735-.72h5.047V-8.436H1.375zm0 0"/></symbol><symbol overflow="visible" id="a"><path d="M1.28-9.484H3l4.203 7.937v-7.937h1.25V0H6.72L2.515-7.922V0H1.28zm0 0"/></symbol></defs><g><path fill="#fff" d="M0 0h300v300H0z"/><path d="M137.867 233.105l-12.828-11.027" stroke-width="1.2" stroke="#000" stroke-miterlimit="10" fill="none"/><path d="M125.04 222.078l-12.83-11.023M112.21 211.055l-15.96 5.597" stroke-width="1.2" stroke="#00f" stroke-miterlimit="10" fill="none"/><path d="M96.25 216.652l-15.96 5.594" stroke-width="1.2" stroke="#000" stroke-miterlimit="10" fill="none"/><path d="M112.21 211.055l3.138-16.62" stroke-width="1.2" stroke="#00f" stroke-miterlimit="10" fill="none"/><path d="M115.348 194.434l3.132-16.62" stroke-width="1.2" stroke="#000" stroke-miterlimit="10" fill="none"/><path d="M107.21 203.055h10v16h-10zm0 0" fill="#fff"/><use xlink:href="#a" x="107.211" y="215.431" fill="#00f"/><path d="M118.48 177.813l-25.652-22.05M92.828 155.762l-31.926 11.195M87 149.37l-25.54 8.954M99.094 122.523l-6.266 33.24M60.902 166.957l-25.652-22.05M35.25 144.906l6.27-33.242M43.7 143.06l5.015-26.595M41.52 111.664l31.92-11.19M73.44 100.473l25.654 22.05M70.816 108.715l20.524 17.637M99.094 122.523l31.922-11.195M131.016 111.328l25.656 22.05M138.77 107.5l20.523 17.637" stroke-width="1.2" stroke="#000" stroke-miterlimit="10" fill="none"/><path d="M137.285 78.086l-3.133 16.62" stroke-width="1.2" stroke="#00f" stroke-miterlimit="10" fill="none"/><path d="M134.152 94.707l-3.136 16.62M156.672 133.38l31.922-11.192M188.594 122.188l3.133-16.622" stroke-width="1.2" stroke="#000" stroke-miterlimit="10" fill="none"/><path d="M191.727 105.566l3.136-16.62" stroke-width="1.2" stroke="#00f" stroke-miterlimit="10" fill="none"/><path d="M181.398 117.387l2.508-13.297" stroke-width="1.2" stroke="#000" stroke-miterlimit="10" fill="none"/><path d="M183.906 104.09l2.508-13.297" stroke-width="1.2" stroke="#00f" stroke-miterlimit="10" fill="none"/><path d="M188.594 122.188l12.828 11.023" stroke-width="1.2" stroke="#000" stroke-miterlimit="10" fill="none"/><path d="M201.422 133.21l12.824 11.028M194.863 88.945l-12.828-11.023" stroke-width="1.2" stroke="#00f" stroke-miterlimit="10" fill="none"/><path d="M182.035 77.922l-12.828-11.027" stroke-width="1.2" stroke="#000" stroke-miterlimit="10" fill="none"/><path d="M189.863 80.945h10v16h-10zm0 0" fill="#fff"/><use xlink:href="#a" x="189.863" y="93.321" fill="#00f"/><path d="M169.207 66.895l-15.96 5.597" stroke-width="1.2" stroke="#000" stroke-miterlimit="10" fill="none"/><path d="M153.246 72.492l-15.96 5.594" stroke-width="1.2" stroke="#00f" stroke-miterlimit="10" fill="none"/><path d="M168.648 75.527l-12.77 4.477" stroke-width="1.2" stroke="#000" stroke-miterlimit="10" fill="none"/><path d="M155.88 80.004l-12.767 4.476" stroke-width="1.2" stroke="#00f" stroke-miterlimit="10" fill="none"/><path d="M132.285 70.086h10v16h-10zm0 0" fill="#fff"/><use xlink:href="#a" x="132.285" y="82.462" fill="#00f"/><path d="M214.246 144.238l16.46-3.898" stroke-width="1.2" stroke="#00f" stroke-miterlimit="10" fill="none"/><path d="M230.707 140.34l16.457-3.9M211.488 177.953l1.38-16.86" stroke-width="1.2" stroke="#000" stroke-miterlimit="10" fill="none"/><path d="M212.867 161.094l1.38-16.856" stroke-width="1.2" stroke="#00f" stroke-miterlimit="10" fill="none"/><path d="M209.246 136.238h10v16h-10zm0 0" fill="#fff"/><use xlink:href="#a" x="209.246" y="148.614" fill="#00f"/><path d="M247.164 136.44l17.586 28.9M242.125 143.47l14.066 23.12M264.75 165.34l-11.023 12.828" stroke-width="1.2" stroke="#000" stroke-miterlimit="10" fill="none"/><path d="M253.727 178.168L242.7 190.996M242.7 190.996l-15.606-6.523" stroke-width="1.2" stroke="#00f" stroke-miterlimit="10" fill="none"/><path d="M227.094 184.473l-15.606-6.52" stroke-width="1.2" stroke="#000" stroke-miterlimit="10" fill="none"/><path d="M242.648 182.348l-12.484-5.22" stroke-width="1.2" stroke="#00f" stroke-miterlimit="10" fill="none"/><path d="M230.164 177.13l-12.484-5.22" stroke-width="1.2" stroke="#000" stroke-miterlimit="10" fill="none"/><path d="M237.7 182.996h10v16h-10zm0 0" fill="#fff"/><use xlink:href="#a" x="237.699" y="195.372" fill="#00f"/></g></svg>
